svgs/regular/unlock.svg

<svg xmlns="http://www.w3.org/2000/svg" viewBox="0 0 448 512"><!-- Font Awesome Pro 6.0.0-alpha2 by @fontawesome - https://fontawesome.com License - https://fontawesome.com/license (Commercial License) --><path d="M384 192H144V128C144 83.891 179.891 48 224 48C258.844 48 289.438 70.25 300.141 103.375C304.234 116 317.672 122.859 330.359 118.844C342.969 114.766 349.891 101.234 345.828 88.625C328.688 35.609 279.734 0 224 0C153.422 0 96 57.422 96 128V192H64C28.654 192 0 220.654 0 256V448C0 483.346 28.654 512 64 512H384C419.346 512 448 483.346 448 448V256C448 220.654 419.346 192 384 192ZM400 448C400 456.822 392.822 464 384 464H64C55.178 464 48 456.822 48 448V256C48 247.178 55.178 240 64 240H384C392.822 240 400 247.178 400 256V448Z"/></svg>

<svg xmlns="http://www.w3.org/2000/svg" viewBox="0 0 448 512"><!--! Font Awesome Pro 6.4.0 by @fontawesome - https://fontawesome.com License - https://fontawesome.com/license (Commercial License) Copyright 2023 Fonticons, Inc. --><path d="M144 128c0-44.2 35.8-80 80-80c35.6 0 65.8 23.2 76.1 55.4c4.1 12.6 17.6 19.5 30.2 15.5s19.5-17.6 15.5-30.2C329.2 37.2 281 0 224 0C153.3 0 96 57.3 96 128v64H64c-35.3 0-64 28.7-64 64V448c0 35.3 28.7 64 64 64H384c35.3 0 64-28.7 64-64V256c0-35.3-28.7-64-64-64H144V128zM48 256c0-8.8 7.2-16 16-16H384c8.8 0 16 7.2 16 16V448c0 8.8-7.2 16-16 16H64c-8.8 0-16-7.2-16-16V256z"/></svg>
